images/Logo_Kapteyn_Branding_pos.svg

<?xml version="1.0" encoding="UTF-8"?>
<!DOCTYPE svg PUBLIC "-//W3C//DTD SVG 1.1//EN" "http://www.w3.org/Graphics/SVG/1.1/DTD/svg11.dtd">
<svg version="1.1" xmlns="http://www.w3.org/2000/svg" xmlns:xlink="http://www.w3.org/1999/xlink" x="0" y="0" width="128.999" height="34" viewBox="0, 0, 128.999, 34">
  <g id="Logo">
    <path d="M8.742,28.742 C8.742,29.353 8.69,29.945 8.586,30.517 C8.482,31.091 8.27,31.604 7.952,32.059 C7.633,32.514 7.172,32.879 6.567,33.152 C5.962,33.425 5.158,33.561 4.157,33.561 C3.415,33.561 2.784,33.448 2.264,33.221 C1.743,32.993 1.314,32.68 0.976,32.284 C0.638,31.887 0.391,31.415 0.234,30.869 C0.078,30.323 -0,29.73 -0,29.094 L-0,28.351 L2.439,28.351 L2.439,29.074 C2.439,29.867 2.573,30.482 2.84,30.918 C3.106,31.353 3.61,31.571 4.352,31.571 C4.742,31.571 5.064,31.513 5.318,31.395 C5.571,31.278 5.773,31.106 5.923,30.879 C6.072,30.651 6.173,30.368 6.225,30.03 C6.277,29.691 6.303,29.308 6.303,28.879 L6.303,19.298 L8.742,19.298 z M13.894,27.688 L18.147,27.688 L16.059,21.698 L16.001,21.698 z M14.752,19.298 L17.347,19.298 L22.713,33.23 L20.098,33.23 L18.791,29.542 L13.23,29.542 L11.923,33.23 L9.406,33.23 z M23.748,19.298 L26.324,19.298 L32.685,29.561 L32.724,29.561 L32.724,19.298 L35.046,19.298 L35.046,33.23 L32.47,33.23 L26.129,22.986 L26.07,22.986 L26.07,33.23 L23.748,33.23 z M42.284,19.298 L44.724,19.298 L44.724,25.639 L50.929,19.298 L53.934,19.298 L48.373,24.859 L54.324,33.23 L51.28,33.23 L46.714,26.576 L44.724,28.547 L44.724,33.23 L42.284,33.23 z M59.105,27.688 L63.359,27.688 L61.271,21.698 L61.212,21.698 z M59.963,19.298 L62.558,19.298 L67.925,33.23 L65.309,33.23 L64.002,29.542 L58.441,29.542 L57.134,33.23 L54.617,33.23 z M71.495,25.893 L75.066,25.893 C75.34,25.893 75.619,25.854 75.906,25.776 C76.192,25.698 76.455,25.571 76.696,25.395 C76.936,25.22 77.132,24.986 77.281,24.693 C77.43,24.4 77.505,24.033 77.505,23.591 C77.505,23.136 77.44,22.759 77.31,22.459 C77.18,22.16 77.005,21.923 76.784,21.747 C76.562,21.571 76.309,21.451 76.022,21.386 C75.736,21.321 75.43,21.288 75.105,21.288 L71.495,21.288 z M69.056,19.298 L75.203,19.298 C76.192,19.298 76.998,19.441 77.623,19.727 C78.247,20.013 78.728,20.371 79.066,20.801 C79.405,21.229 79.636,21.698 79.759,22.205 C79.883,22.713 79.945,23.18 79.945,23.61 C79.945,24.04 79.883,24.505 79.759,25.006 C79.636,25.507 79.405,25.971 79.066,26.4 C78.728,26.83 78.247,27.184 77.623,27.464 C76.998,27.744 76.192,27.884 75.203,27.884 L71.495,27.884 L71.495,33.23 L69.056,33.23 z M80.549,19.298 L91.827,19.298 L91.827,21.405 L87.399,21.405 L87.399,33.23 L84.959,33.23 L84.959,21.405 L80.549,21.405 z M93.252,19.298 L103.282,19.298 L103.282,21.405 L95.692,21.405 L95.692,25.054 L102.716,25.054 L102.716,27.045 L95.692,27.045 L95.692,31.123 L103.419,31.123 L103.419,33.23 L93.252,33.23 z M109.37,27.766 L104.14,19.298 L106.971,19.298 L110.659,25.542 L114.287,19.298 L117.019,19.298 L111.809,27.766 L111.809,33.23 L109.37,33.23 z M117.702,19.298 L120.278,19.298 L126.638,29.561 L126.677,29.561 L126.677,19.298 L128.999,19.298 L128.999,33.23 L126.423,33.23 L120.082,22.986 L120.024,22.986 L120.024,33.23 L117.702,33.23 z M6.655,13.093 C7.149,13.093 7.617,13.051 8.059,12.966 C8.501,12.882 8.892,12.728 9.23,12.508 C9.569,12.286 9.835,11.99 10.03,11.62 C10.225,11.249 10.323,10.784 10.323,10.224 C10.323,9.327 10.007,8.653 9.377,8.205 C8.745,7.756 7.838,7.532 6.655,7.532 L2.089,7.532 L2.089,13.093 z M6.655,6.4 C7.188,6.4 7.65,6.339 8.04,6.215 C8.43,6.092 8.755,5.922 9.015,5.707 C9.276,5.493 9.471,5.242 9.601,4.956 C9.731,4.67 9.796,4.364 9.796,4.039 C9.796,2.296 8.749,1.424 6.655,1.424 L2.089,1.424 L2.089,6.4 z M6.655,0.293 C7.24,0.293 7.802,0.347 8.343,0.458 C8.882,0.569 9.357,0.758 9.767,1.024 C10.177,1.291 10.505,1.642 10.752,2.078 C10.999,2.513 11.123,3.057 11.123,3.707 C11.123,4.071 11.065,4.426 10.948,4.77 C10.83,5.115 10.664,5.428 10.45,5.707 C10.235,5.987 9.981,6.224 9.689,6.42 C9.396,6.614 9.067,6.752 8.703,6.829 L8.703,6.868 C9.601,6.985 10.316,7.352 10.849,7.971 C11.383,8.589 11.65,9.353 11.65,10.263 C11.65,10.484 11.631,10.735 11.591,11.014 C11.552,11.295 11.474,11.581 11.357,11.873 C11.24,12.166 11.071,12.456 10.849,12.741 C10.628,13.028 10.333,13.278 9.962,13.492 C9.591,13.708 9.136,13.883 8.596,14.019 C8.056,14.156 7.409,14.224 6.655,14.224 L0.762,14.224 L0.762,0.293 z M19.474,6.907 C19.878,6.907 20.261,6.846 20.626,6.721 C20.99,6.598 21.308,6.42 21.582,6.185 C21.855,5.951 22.073,5.668 22.236,5.337 C22.398,5.005 22.479,4.624 22.479,4.195 C22.479,3.337 22.232,2.66 21.738,2.166 C21.243,1.672 20.489,1.424 19.474,1.424 L14.518,1.424 L14.518,6.907 z M19.572,0.293 C20.144,0.293 20.687,0.364 21.201,0.507 C21.715,0.65 22.164,0.868 22.548,1.161 C22.931,1.453 23.237,1.831 23.465,2.293 C23.692,2.754 23.806,3.298 23.806,3.922 C23.806,4.806 23.578,5.574 23.123,6.224 C22.668,6.875 21.992,7.291 21.094,7.472 L21.094,7.513 C21.549,7.578 21.926,7.697 22.226,7.873 C22.525,8.049 22.768,8.273 22.957,8.547 C23.146,8.819 23.283,9.136 23.367,9.493 C23.451,9.85 23.507,10.237 23.533,10.654 C23.546,10.888 23.559,11.174 23.572,11.513 C23.585,11.85 23.611,12.192 23.65,12.537 C23.689,12.882 23.751,13.207 23.835,13.513 C23.92,13.818 24.034,14.055 24.177,14.224 L22.713,14.224 C22.635,14.095 22.574,13.935 22.528,13.747 C22.482,13.558 22.45,13.363 22.43,13.161 C22.411,12.96 22.394,12.762 22.382,12.565 C22.368,12.371 22.356,12.202 22.343,12.058 C22.317,11.564 22.275,11.073 22.216,10.586 C22.158,10.097 22.034,9.662 21.845,9.278 C21.657,8.894 21.384,8.585 21.026,8.351 C20.668,8.117 20.177,8.013 19.553,8.039 L14.518,8.039 L14.518,14.224 L13.191,14.224 L13.191,0.293 z M33.855,8.761 L31.163,1.619 L28.372,8.761 z M31.963,0.293 L37.426,14.224 L36.002,14.224 L34.304,9.892 L27.962,9.892 L26.284,14.224 L24.879,14.224 L30.48,0.293 z M39.963,0.293 L48.08,12.078 L48.119,12.078 L48.119,0.293 L49.446,0.293 L49.446,14.224 L47.963,14.224 L39.846,2.439 L39.807,2.439 L39.807,14.224 L38.48,14.224 L38.48,0.293 z M55.807,13.093 C56.809,13.093 57.671,12.985 58.392,12.771 C59.115,12.555 59.71,12.215 60.178,11.746 C60.646,11.278 60.991,10.674 61.212,9.931 C61.433,9.19 61.544,8.3 61.544,7.259 C61.544,6.218 61.433,5.327 61.212,4.586 C60.991,3.844 60.646,3.239 60.178,2.77 C59.71,2.303 59.115,1.961 58.392,1.746 C57.671,1.532 56.809,1.424 55.807,1.424 L52.978,1.424 L52.978,13.093 z M56.471,0.293 C58.591,0.345 60.187,0.939 61.261,2.078 C62.334,3.217 62.871,4.943 62.871,7.259 C62.871,9.574 62.334,11.301 61.261,12.439 C60.187,13.578 58.591,14.173 56.471,14.224 L51.651,14.224 L51.651,0.293 z M66.246,14.224 L64.919,14.224 L64.919,0.292 L66.246,0.292 z M66.246,0.293 M70.032,0.293 L78.149,12.078 L78.188,12.078 L78.188,0.293 L79.515,0.293 L79.515,14.224 L78.032,14.224 L69.915,2.439 L69.876,2.439 L69.876,14.224 L68.549,14.224 L68.549,0.293 z M92.762,14.224 L92.586,11.687 L92.547,11.687 C92.313,12.182 92.024,12.608 91.679,12.966 C91.334,13.324 90.954,13.617 90.538,13.844 C90.121,14.071 89.676,14.237 89.201,14.342 C88.726,14.445 88.235,14.498 87.728,14.498 C86.636,14.498 85.676,14.3 84.849,13.902 C84.023,13.506 83.337,12.975 82.791,12.312 C82.245,11.648 81.835,10.882 81.562,10.01 C81.288,9.138 81.152,8.221 81.152,7.259 C81.152,6.296 81.288,5.379 81.562,4.508 C81.835,3.636 82.245,2.865 82.791,2.194 C83.337,1.525 84.023,0.992 84.849,0.595 C85.676,0.198 86.636,-0 87.728,-0 C88.456,-0 89.146,0.097 89.796,0.293 C90.447,0.487 91.025,0.78 91.533,1.171 C92.04,1.561 92.469,2.042 92.821,2.614 C93.172,3.187 93.412,3.857 93.543,4.624 L92.216,4.624 C92.177,4.221 92.043,3.814 91.816,3.404 C91.588,2.995 91.283,2.621 90.899,2.283 C90.515,1.944 90.056,1.668 89.523,1.453 C88.99,1.239 88.391,1.132 87.728,1.132 C86.804,1.132 86.011,1.306 85.347,1.658 C84.684,2.01 84.14,2.474 83.718,3.054 C83.295,3.633 82.983,4.286 82.781,5.014 C82.579,5.743 82.479,6.491 82.479,7.259 C82.479,8.013 82.579,8.758 82.781,9.493 C82.983,10.227 83.295,10.885 83.718,11.464 C84.14,12.043 84.684,12.508 85.347,12.858 C86.011,13.21 86.804,13.386 87.728,13.386 C88.495,13.386 89.181,13.259 89.786,13.005 C90.391,12.752 90.902,12.397 91.318,11.941 C91.734,11.486 92.047,10.946 92.255,10.322 C92.463,9.697 92.56,9.014 92.547,8.273 L87.806,8.273 L87.806,7.141 L93.718,7.141 L93.718,14.224 z M95.787,12.156 L97.426,12.156 L97.426,14.224 L95.787,14.224 z" fill="#005A87"/>
  </g>
</svg>

<?xml version="1.0" encoding="utf-8"?>
<!-- Generator: Adobe Illustrator 19.2.0, SVG Export Plug-In . SVG Version: 6.00 Build 0)  -->
<svg version="1.1" id="Ebene_1" xmlns="http://www.w3.org/2000/svg" xmlns:xlink="http://www.w3.org/1999/xlink" x="0px" y="0px"
	 width="129px" height="34px" viewBox="0 0 129 34" style="enable-background:new 0 0 129 34;" xml:space="preserve">
<style type="text/css">
	.st0{clip-path:url(#SVGID_2_);}
	.st1{fill:#005A87;}
</style>
<g id="Logo">
	<g>
		<defs>
			<rect id="SVGID_1_" width="129" height="34"/>
		</defs>
		<clipPath id="SVGID_2_">
			<use xlink:href="#SVGID_1_"  style="overflow:visible;"/>
		</clipPath>
		<g class="st0">
			<path class="st1" d="M8.7,28.7c0,0.6-0.1,1.2-0.2,1.8c-0.1,0.6-0.3,1.1-0.6,1.5c-0.3,0.5-0.8,0.8-1.4,1.1s-1.4,0.4-2.4,0.4
				c-0.7,0-1.4-0.1-1.9-0.3C1.7,33,1.3,32.7,1,32.3c-0.3-0.4-0.6-0.9-0.7-1.4C0.1,30.3,0,29.7,0,29.1v-0.7h2.4v0.7
				c0,0.8,0.1,1.4,0.4,1.8c0.3,0.4,0.8,0.7,1.5,0.7c0.4,0,0.7-0.1,1-0.2c0.3-0.1,0.5-0.3,0.6-0.5c0.1-0.2,0.2-0.5,0.3-0.8
				c0.1-0.3,0.1-0.7,0.1-1.2v-9.6h2.4V28.7z M13.9,27.7h4.3l-2.1-6H16L13.9,27.7z M14.8,19.3h2.6l5.4,13.9h-2.6l-1.3-3.7h-5.6
				l-1.3,3.7H9.4L14.8,19.3z M23.7,19.3h2.6l6.4,10.3h0V19.3H35v13.9h-2.6L26.1,23h-0.1v10.2h-2.3V19.3z M42.3,19.3h2.4v6.3l6.2-6.3
				h3l-5.6,5.6l6,8.4h-3l-4.6-6.7l-2,2v4.7h-2.4V19.3z M59.1,27.7h4.3l-2.1-6h-0.1L59.1,27.7z M60,19.3h2.6l5.4,13.9h-2.6L64,29.5
				h-5.6l-1.3,3.7h-2.5L60,19.3z M71.5,25.9h3.6c0.3,0,0.6,0,0.8-0.1c0.3-0.1,0.5-0.2,0.8-0.4c0.2-0.2,0.4-0.4,0.6-0.7
				c0.1-0.3,0.2-0.7,0.2-1.1c0-0.5-0.1-0.8-0.2-1.1c-0.1-0.3-0.3-0.5-0.5-0.7c-0.2-0.2-0.5-0.3-0.8-0.4c-0.3-0.1-0.6-0.1-0.9-0.1
				h-3.6V25.9z M69.1,19.3h6.1c1,0,1.8,0.1,2.4,0.4c0.6,0.3,1.1,0.6,1.4,1.1c0.3,0.4,0.6,0.9,0.7,1.4c0.1,0.5,0.2,1,0.2,1.4
				s-0.1,0.9-0.2,1.4c-0.1,0.5-0.4,1-0.7,1.4c-0.3,0.4-0.8,0.8-1.4,1.1c-0.6,0.3-1.4,0.4-2.4,0.4h-3.7v5.3h-2.4V19.3z M80.5,19.3
				h11.3v2.1h-4.4v11.8H85V21.4h-4.4V19.3z M93.3,19.3h10v2.1h-7.6v3.6h7v2h-7v4.1h7.7v2.1H93.3V19.3z M109.4,27.8l-5.2-8.5h2.8
				l3.7,6.2l3.6-6.2h2.7l-5.2,8.5v5.5h-2.4V27.8z M117.7,19.3h2.6l6.4,10.3h0V19.3h2.3v13.9h-2.6L120.1,23H120v10.2h-2.3V19.3z
				 M6.7,13.1c0.5,0,1,0,1.4-0.1c0.4-0.1,0.8-0.2,1.2-0.5c0.3-0.2,0.6-0.5,0.8-0.9c0.2-0.4,0.3-0.8,0.3-1.4c0-0.9-0.3-1.6-0.9-2
				C8.7,7.8,7.8,7.5,6.7,7.5H2.1v5.6H6.7z M6.7,6.4c0.5,0,1-0.1,1.4-0.2c0.4-0.1,0.7-0.3,1-0.5C9.3,5.5,9.5,5.2,9.6,5
				C9.7,4.7,9.8,4.4,9.8,4c0-1.7-1-2.6-3.1-2.6H2.1v5H6.7z M6.7,0.3c0.6,0,1.1,0.1,1.7,0.2c0.5,0.1,1,0.3,1.4,0.6
				c0.4,0.3,0.7,0.6,1,1.1c0.2,0.4,0.4,1,0.4,1.6c0,0.4-0.1,0.7-0.2,1.1c-0.1,0.3-0.3,0.7-0.5,0.9C10.2,6,10,6.2,9.7,6.4
				c-0.3,0.2-0.6,0.3-1,0.4v0C9.6,7,10.3,7.4,10.8,8c0.5,0.6,0.8,1.4,0.8,2.3c0,0.2,0,0.5-0.1,0.8c0,0.3-0.1,0.6-0.2,0.9
				c-0.1,0.3-0.3,0.6-0.5,0.9c-0.2,0.3-0.5,0.5-0.9,0.8c-0.4,0.2-0.8,0.4-1.4,0.5c-0.5,0.1-1.2,0.2-1.9,0.2H0.8V0.3H6.7z M19.5,6.9
				c0.4,0,0.8-0.1,1.2-0.2c0.4-0.1,0.7-0.3,1-0.5c0.3-0.2,0.5-0.5,0.7-0.8c0.2-0.3,0.2-0.7,0.2-1.1c0-0.9-0.2-1.5-0.7-2
				c-0.5-0.5-1.2-0.7-2.3-0.7h-5v5.5H19.5z M19.6,0.3c0.6,0,1.1,0.1,1.6,0.2s1,0.4,1.3,0.7c0.4,0.3,0.7,0.7,0.9,1.1
				c0.2,0.5,0.3,1,0.3,1.6c0,0.9-0.2,1.7-0.7,2.3c-0.5,0.7-1.1,1.1-2,1.2v0c0.5,0.1,0.8,0.2,1.1,0.4C22.5,8,22.8,8.3,23,8.5
				c0.2,0.3,0.3,0.6,0.4,0.9s0.1,0.7,0.2,1.2c0,0.2,0,0.5,0,0.9c0,0.3,0,0.7,0.1,1c0,0.3,0.1,0.7,0.2,1c0.1,0.3,0.2,0.5,0.3,0.7
				h-1.5c-0.1-0.1-0.1-0.3-0.2-0.5c0-0.2-0.1-0.4-0.1-0.6c0-0.2,0-0.4,0-0.6c0-0.2,0-0.4,0-0.5c0-0.5-0.1-1-0.1-1.5
				c-0.1-0.5-0.2-0.9-0.4-1.3c-0.2-0.4-0.5-0.7-0.8-0.9C20.7,8.1,20.2,8,19.6,8h-5v6.2h-1.3V0.3H19.6z M33.9,8.8l-2.7-7.1l-2.8,7.1
				H33.9z M32,0.3l5.5,13.9H36l-1.7-4.3H28l-1.7,4.3h-1.4l5.6-13.9H32z M40,0.3l8.1,11.8h0V0.3h1.3v13.9H48L39.8,2.4h0v11.8h-1.3
				V0.3H40z M55.8,13.1c1,0,1.9-0.1,2.6-0.3c0.7-0.2,1.3-0.6,1.8-1c0.5-0.5,0.8-1.1,1-1.8c0.2-0.7,0.3-1.6,0.3-2.7s-0.1-1.9-0.3-2.7
				c-0.2-0.7-0.6-1.3-1-1.8c-0.5-0.5-1.1-0.8-1.8-1c-0.7-0.2-1.6-0.3-2.6-0.3H53v11.7H55.8z M56.5,0.3c2.1,0.1,3.7,0.6,4.8,1.8
				c1.1,1.1,1.6,2.9,1.6,5.2c0,2.3-0.5,4-1.6,5.2c-1.1,1.1-2.7,1.7-4.8,1.8h-4.8V0.3H56.5z M66.2,14.2h-1.3V0.3h1.3V14.2z M70,0.3
				l8.1,11.8h0V0.3h1.3v13.9H78L69.9,2.4h0v11.8h-1.3V0.3H70z M92.8,14.2l-0.2-2.5h0c-0.2,0.5-0.5,0.9-0.9,1.3
				c-0.3,0.4-0.7,0.7-1.1,0.9c-0.4,0.2-0.9,0.4-1.3,0.5c-0.5,0.1-1,0.2-1.5,0.2c-1.1,0-2.1-0.2-2.9-0.6c-0.8-0.4-1.5-0.9-2.1-1.6
				c-0.5-0.7-1-1.4-1.2-2.3c-0.3-0.9-0.4-1.8-0.4-2.8c0-1,0.1-1.9,0.4-2.8c0.3-0.9,0.7-1.6,1.2-2.3C83.3,1.5,84,1,84.8,0.6
				C85.7,0.2,86.6,0,87.7,0c0.7,0,1.4,0.1,2.1,0.3c0.7,0.2,1.2,0.5,1.7,0.9C92,1.6,92.5,2,92.8,2.6c0.4,0.6,0.6,1.2,0.7,2h-1.3
				c0-0.4-0.2-0.8-0.4-1.2c-0.2-0.4-0.5-0.8-0.9-1.1c-0.4-0.3-0.8-0.6-1.4-0.8c-0.5-0.2-1.1-0.3-1.8-0.3c-0.9,0-1.7,0.2-2.4,0.5
				c-0.7,0.4-1.2,0.8-1.6,1.4c-0.4,0.6-0.7,1.2-0.9,2c-0.2,0.7-0.3,1.5-0.3,2.2c0,0.8,0.1,1.5,0.3,2.2c0.2,0.7,0.5,1.4,0.9,2
				c0.4,0.6,1,1,1.6,1.4c0.7,0.4,1.5,0.5,2.4,0.5c0.8,0,1.5-0.1,2.1-0.4c0.6-0.3,1.1-0.6,1.5-1.1c0.4-0.5,0.7-1,0.9-1.6
				c0.2-0.6,0.3-1.3,0.3-2h-4.7V7.1h5.9v7.1H92.8z M95.8,12.2h1.6v2.1h-1.6V12.2z"/>
		</g>
	</g>
</g>
</svg>
